X:1
T:Title
%%score { 1 | 2 }
L:1/8
M:4/4
K:Db
V:1 treble nm="Grand Piano"
V:2 bass 
V:1
 z4 z2[Q:1/4=100] [FA]2 | [FA]3 F GFED | B6 B2 | [FA]3 [GB] [FA]2 [DF]2 | [CE]6 [CA]2 | A3 F GFED | %6
 B6 d2 | A3 D [CF]2 [CE]2 |[M:5/8] D- D3 z |[M:3/8] [Fd][Fc][FB] |[M:4/4] [Gc]2 c2- ccBA | %11
 [GB]2 [FA]4 [DF]2 | [CA]3 [CE] [CA]2 [CG]2 | [DF]4 z [Fd][Fc][FB] | [Gc]2 c2- ccBA | %15
 [GB]2 [FA]4 [D_Fd]2 | [DFA]3[K:bass] [F,D] [A,CF]2 [G,CE]2 |[M:3/4] [F,D]6 |] %18
V:2
 z4 z2 [D,D]2 | [D,D]3 [D,A,D] [D,B,D][D,A,D][D,G,D][D,F,] | [G,D]6 [G,DG]2 | %3
 [D,D]3 [D,D] [D,D]2 [D,A,]2 | [A,,A,]6 [A,,G,]2 | [D,F,D]3 [D,A,D] [D,B,D][D,A,D][D,G,D][D,F,] | %6
 [G,D]6[K:treble] [=G,D_F]2 | [A,DF]3[K:bass] [A,,F,] [A,,A,]2 [A,,G,]2 | %8
[M:5/8] [D,F,]- [D,F,]3 z |[M:3/8] [D,A,][D,A,][D,A,] | %10
[M:4/4] [E,A,]2[K:treble] [A,EG]2- [A,EG][A,EG][A,DG][A,CG] | [D,D]2 [D,D]4 [D,A,]2 | %12
 [A,,A,]3 [A,,A,] [A,,E,]2 [A,,A,]2 | [D,A,]4 z [D,A,][D,A,][D,A,] | %14
 [E,A,]2[K:treble] [A,EG]2- [A,EG][A,EG][A,DG][A,CG] | [D,D]2 [D,D]4 =G,2 | A,3 A,, A,,2 A,,2 | %17
[M:3/4] D,6 |] %18

